X:1
T:Assynt, 87.87 D
T:Assynt, 87.87 D
T:Anonymous, 1905
T:Public Domain Courtesy of the Cyber Hymnal™
C:Anonymous, 1905
Z:Public Domain
Z:Courtesy of the Cyber Hymnal™
%%score ( 1 2 ) ( 3 4 )
L:1/8
Q:1/4=110
M:4/4
K:Eb
V:1 treble 
V:2 treble 
V:3 bass 
V:4 bass 
V:1
 E2 [EF]2 | [EG]2 [EA]2 [EG]2 [DF]2 | E2 [EG]2 [EB]2 [EG]2 | [FB]2 [DB]2 [EB]2 [FA]2 | %4
 [EG]4 [FG]2 [EG]2 | [E=A]2 [EF]2 [DG]2 [FA]2 | [FB]2 [DB]2 [Ec]2 [Fd]2 | [Ee]2 [Ge]2 [Fd]2 c2 | %8
 [DB]4 [DB]2 [CB]2 | [CA]2 [B,G]2 [A,F]2 [Ec]2 | [DB]2 [DA]2 [DG]2 [DF]2 | %11
 E2 ([CF][B,G]) A2 [EG]2 | [DF]4 [DB]2 (cd) | [Ee]2 [Ee]2 [Ed]2 [Ec]2 | [EB]2 [B,B]2 A2 [EG]2 | %15
 [EF]2 (GA) [EG]2 [DF]2 | E4 |] %17
V:2
 E2 x2 | x8 | E2 x6 | x8 | x8 | x8 | x8 | x6 (FE) | x8 | x8 | x8 | E2 (B,D) x4 | x6 F2 | x8 | %14
 x4 (CD) x2 | x2 E2 x4 | E4 |] %17
V:3
 [E,G,]2 [E,A,]2 | [E,B,]2 [E,C]2 [E,B,]2 [E,A,]2 | [E,G,]2 [E,B,]2 [E,G,]2 [E,B,]2 | %3
 [D,B,]2 [B,,B,]2 [C,B,]2 [D,B,]2 | [E,B,]4 [D,=B,]2 [C,C]2 | [F,C]2 [F,=A,]2 [F,B,]2 [F,C]2 | %6
 [D,D]2 G,2 [E,G,]2 [D,=B,]2 | [C,C]2 [C,B,]2 [F,B,]2 [F,=A,]2 | [B,,B,]4 G,2 [=E,G,]2 | %9
 F,2 F,2 F,2 [A,,F,]2 | [B,,F,]2 [B,,B,]2 [B,,B,]2 [B,,A,]2 | [C,G,]2 A,[G,C] (DB,) [E,B,]2 | %12
 [B,,B,]4 B,2 [A,B,]2 | [G,B,]2 C2 B,2 (CD) | [G,E]2 [G,E]2 [F,B,]2 [E,B,]2 | %15
 [A,C]2 [F,C]2 B,2 (B,A,) | [E,G,]4 |] %17
V:4
 x4 | x8 | x8 | x8 | x8 | x8 | x2 G,2 x4 | x8 | x4 G,2 x2 | F,2 F,2 F,2 x2 | x8 | x2 (A, F,2) x3 | %12
 x4 B,2 x2 | x2 C2 B,2 A,2 | x8 | x4 B,2 B,,2 | x4 |] %17

